X:1246
T:Baxaben cuatro Alleranos
C:Trad.
M:3/8
L:1/8
Q:2/8=100
K:Bb major
D|:G2 G|BAG|F3/2E/2 D-|D2 B|d2 d|edc
|[1 B3/2A/2 G-|G2 D:|[2 d d2-||d z d|
|edc|d3|G2 B|ddd|edc|d3/2c/2 B|cBA |
B3/2 A/2 G|AG^F|G3-|G2||
